packages/react/src/components/base/Icon/assets/icon-first-aid.svg

<svg width="24" height="24" viewBox="0 0 24 24" xmlns="http://www.w3.org/2000/svg" fill="currentColor"> <path d="M20.2499 7.87549H16.1249V3.75049C16.1249 3.25321 15.9274 2.77629 15.5758 2.42466C15.2241 2.07303 14.7472 1.87549 14.2499 1.87549H9.74994C9.25266 1.87549 8.77574 2.07303 8.42411 2.42466C8.07248 2.77629 7.87494 3.25321 7.87494 3.75049V7.87549H3.74994C3.25266 7.87549 2.77574 8.07303 2.42411 8.42466C2.07248 8.77629 1.87494 9.25321 1.87494 9.75049V14.2505C1.87494 14.7478 2.07248 15.2247 2.42411 15.5763C2.77574 15.9279 3.25266 16.1255 3.74994 16.1255H7.87494V20.2505C7.87494 20.7478 8.07248 21.2247 8.42411 21.5763C8.77574 21.9279 9.25266 22.1255 9.74994 22.1255H14.2499C14.7472 22.1255 15.2241 21.9279 15.5758 21.5763C15.9274 21.2247 16.1249 20.7478 16.1249 20.2505V16.1255H20.2499C20.7472 16.1255 21.2241 15.9279 21.5758 15.5763C21.9274 15.2247 22.1249 14.7478 22.1249 14.2505V9.75049C22.1249 9.25321 21.9274 8.77629 21.5758 8.42466C21.2241 8.07303 20.7472 7.87549 20.2499 7.87549ZM19.8749 13.8755H14.9999C14.7016 13.8755 14.4154 13.994 14.2044 14.205C13.9935 14.416 13.8749 14.7021 13.8749 15.0005V19.8755H10.1249V15.0005C10.1249 14.7021 10.0064 14.416 9.79543 14.205C9.58446 13.994 9.29831 13.8755 8.99994 13.8755H4.12494V10.1255H8.99994C9.29831 10.1255 9.58446 10.007 9.79543 9.79598C10.0064 9.58501 10.1249 9.29886 10.1249 9.00049V4.12549H13.8749V9.00049C13.8749 9.29886 13.9935 9.58501 14.2044 9.79598C14.4154 10.007 14.7016 10.1255 14.9999 10.1255H19.8749V13.8755Z"/> </svg>

<svg viewBox="0 0 24 24" xmlns="http://www.w3.org/2000/svg" aria-hidden="true" fill="currentColor"><path d="M20.25 7.875h-4.125V3.75a1.875 1.875 0 0 0-1.875-1.875h-4.5A1.875 1.875 0 0 0 7.875 3.75v4.125H3.75A1.875 1.875 0 0 0 1.875 9.75v4.5a1.875 1.875 0 0 0 1.875 1.875h4.125v4.125a1.875 1.875 0 0 0 1.875 1.875h4.5a1.875 1.875 0 0 0 1.875-1.875v-4.125h4.125a1.875 1.875 0 0 0 1.875-1.874v-4.5a1.875 1.875 0 0 0-1.875-1.876m-.375 6H15a1.125 1.125 0 0 0-1.125 1.126v4.874h-3.75v-4.874A1.125 1.125 0 0 0 9 13.876H4.125v-3.75H9A1.125 1.125 0 0 0 10.125 9V4.125h3.75V9A1.125 1.125 0 0 0 15 10.126h4.875z"/></svg>
